X: 1190
T:Gillian's Apples
T:Gillan's Apples
N: page A80
N: hexatonic
R:jig
H:A different 4-part version in
Z:id:hn-jig-178
M:6/8
K:G
Bd"G"|g3 B2A|GAG GBd|"C"efe edB|"G"dBA ABd|
"G"g3 B2A|GBd g2a|bag fge|[1 "D"fdd d:|[2 "G"fdd d2|:
e|"D"faa faa|faa afd|"G"gbb gbb|gbb bag|
"D"faa faa|"C"ede "G"g2a|bag fge|"D"fdd d2:|
